assets/symbols/mulberry/newspaper.svg

<svg height="850.394" viewBox="0 0 850.394 850.394" width="850.394" xmlns="http://www.w3.org/2000/svg"><path d="m465.96 654.83-319.18 81.39-78.12-494.05 31.32-4.13 68.77 457.52 280.94-66.94-2.06-11.07 3.96-.74 2.02 10.45.28-.05v-.01l2.39-.46 285.06-37.78-96.82-452.41 30.76-7.18 105.56 488.51z" fill="#fff"/><path d="m99.98 238.04-3.47-23.06 275.72-3.38 75.4 405.95 2.061 11.07-280.941 66.94zm142.12 123.4-16.27-112.63-87.5 2.08 16.97 122.08zm402.42-224.89 96.82 452.41-285.06 37.78-75.89-419.01 259.25-93.98zm-4.24 145.76-27.14-120.23-82.62 28.89 24.461 111.14z" fill="#fff"/><path d="m613.14 162.08 27.14 120.23-85.3 19.8-24.46-111.14zm-387.31 86.73 16.27 112.63-86.8 11.53-16.97-122.08z" fill="#231f20"/><g fill="none"><g stroke="#231f20"><path d="m447.63 617.55 2.06 11.07-280.94 66.94-68.77-457.52-3.47-23.06 275.72-3.38z" stroke-width="26.406"/><path d="m105.03 237.37-5.05.67-31.32 4.13 78.12 494.05 319.18-81.39" stroke-width="16.504"/><path d="m138.33 250.89 16.97 122.08 86.8-11.53-16.27-112.63zm118.3 6.22 90.28-7.78m-86.36 41.85 90.28-14.01m-84.85 46.71 90.29-14m-85.62 42.01 90.29-14.01m-77.78 62.49 90.29-14.01m-86.37 41.85 90.28-14.01m-84.84 46.72 90.28-20.24m-85.62 48.25 90.29-20.24m-77.64 62.41 90.28-20.24m-86.37 48.07 90.28-20.23m-84.84 46.72 90.28-20.24m-85.61 48.24 90.28-20.23m-247.69-171.2 90.29-14.01m-86.37 41.85 90.28-14.01m-84.85 46.72 90.29-20.24m-85.62 48.25 90.29-20.24m-77.8 68.39 90.28-20.24m-86.36 48.07 90.28-20.23m-84.85 46.72 90.28-20.24m-85.61 48.24 90.28-20.24" stroke-width="13.203"/><path d="m456.28 626.74 285.06-37.78-96.82-452.41-4.88-22.8-259.25 93.98z" stroke-width="26.406"/><path d="m639.54 137.71 4.98-1.16 30.76-7.18 105.56 488.51-314.88 36.95-1.05.12" stroke-width="16.504"/><path d="m613.14 162.08 27.14 120.23-85.3 19.8-24.46-111.14zm-108.51 47.51-87.25 24.53m95.58 8.73-89.43 18.7m95.86 13.82-89.43 18.7m94.93 9.16-89.43 18.7m94.81 31.08-89.43 18.7m95.56 8.74-89.43 18.69m95.87 13.83-91.62 12.87m97.12 14.99-91.63 12.86m94.66 31.06-91.63 12.86m97.78 14.56-91.63 12.88m95.87 13.83-91.62 12.87m97.11 14.98-91.62 12.87m171.49-247.48-89.43 18.7m95.57 8.74-89.43 18.7m95.86 13.82-91.61 12.88m97.11 14.98-91.62 12.87m96.9 36.59-91.61 12.87m97.76 14.57-91.63 12.86m95.87 13.83-91.62 12.87m97.12 14.99-91.63 12.87" stroke-width="13.203"/><path d="m451.59 616.81 2.02 10.45 4.39 22.74" stroke-width="33.008"/></g><path d="m0 0h850.394v850.394h-850.394z"/></g></svg>

<svg xmlns="http://www.w3.org/2000/svg" width="850.394" height="850.394" viewBox="0 0 850.394 850.394" overflow="visible"><path fill="#fff" d="M465.96 654.83l-319.18 81.39-78.12-494.05 31.32-4.13 68.77 457.52 280.94-66.94-2.06-11.07 3.96-.74 2.02 10.45.28-.05v-.01l2.39-.46 285.06-37.78-96.82-452.41 30.76-7.18 105.56 488.51z"/><path d="M99.98 238.04l-3.47-23.06 275.72-3.38 75.4 405.95 2.061 11.07-280.941 66.94-68.77-457.52zm142.12 123.4l-16.27-112.63-87.5 2.08 16.97 122.08 86.8-11.53zM644.52 136.55l96.82 452.41-285.06 37.78-75.89-419.01 259.25-93.98 4.88 22.8zm-4.24 145.76l-27.14-120.23-82.62 28.89 24.461 111.14 85.299-19.8z" fill="#fff"/><path fill="#231f20" d="M613.14 162.08l27.14 120.23-85.3 19.8-24.46-111.14zM225.83 248.81l16.27 112.63-86.8 11.53-16.97-122.08z"/><g fill="none" stroke="#231f20"><path stroke-width="26.406" d="M447.63 617.55l2.06 11.07-280.94 66.94-68.77-457.52-3.47-23.06 275.72-3.38z"/><path stroke-width="16.504" d="M105.03 237.37l-5.05.67-31.32 4.13 78.12 494.05 319.18-81.39"/><path stroke-width="13.203" d="M138.33 250.89l16.97 122.08 86.8-11.53-16.27-112.63zM256.63 257.11l90.28-7.78M260.55 291.18l90.28-14.01M265.98 323.88l90.29-14M270.65 351.89l90.29-14.01M283.16 400.37l90.29-14.01M287.08 428.21l90.28-14.01M292.52 460.92l90.28-20.24M297.18 488.93l90.29-20.24M309.83 531.1l90.28-20.24M313.74 558.93l90.28-20.23M319.18 585.42l90.28-20.24M323.85 613.42l90.28-20.23M166.44 421.99l90.29-14.01M170.36 449.83l90.28-14.01M175.79 482.54l90.29-20.24M180.46 510.55l90.29-20.24M192.95 558.7l90.28-20.24M196.87 586.53l90.28-20.23M202.3 613.02l90.28-20.24M206.97 641.02l90.28-20.24"/><path stroke-width="26.406" d="M456.28 626.74l285.06-37.78-96.82-452.41-4.88-22.8-259.25 93.98z"/><path stroke-width="16.504" d="M639.54 137.71l4.98-1.16 30.76-7.18 105.56 488.51-314.88 36.95-1.05.12"/><path stroke-width="13.203" d="M613.14 162.08l27.14 120.23-85.3 19.8-24.46-111.14zM504.63 209.59l-87.25 24.53M512.96 242.85l-89.43 18.7M519.39 275.37l-89.43 18.7M524.89 303.23l-89.43 18.7M530.27 353.01l-89.43 18.7M536.4 380.45l-89.43 18.69M542.84 412.97l-91.62 12.87M548.34 440.83l-91.63 12.86M551.37 484.75l-91.63 12.86M557.52 512.17l-91.63 12.88M561.76 538.88l-91.62 12.87M567.25 566.73l-91.62 12.87M647.12 332.12l-89.43 18.7M653.26 359.56l-89.43 18.7M659.69 392.08l-91.61 12.88M665.19 419.94l-91.62 12.87M670.47 469.4l-91.61 12.87M676.62 496.84l-91.63 12.86M680.86 523.53l-91.62 12.87M686.36 551.39l-91.63 12.87"/><path stroke-width="33.008" d="M451.59 616.81l2.02 10.45L458 650"/></g><path fill="none" d="M0 0h850.394v850.394H0z"/></svg>
